X: 41783
T: Veganites
R: reel
M: 4/4
K: Bminor
|:AB B2 dBed|ef f2 edBd|AB B2 d3B|e3d efed|
AB B2 dBed|ef f2 edef|af f2 e2de|e2de edBA:|
|:ef f2 af f2|ef f2 edBA|ef f2 af f2|afed edBd|
AB B2 dB B2|effd edBd|AB B2 dBed|dBBA B4:|
|:a2fe f2ed|e2dB dBA2|AB B2 dBed|ef f2 edBd|
AB B2 dB B2|effd edBd|AB B2 dBed|1 dBBA B4:|2 f8||

